src/assets/logos/icons8-github.svg

<?xml version="1.0" encoding="UTF-8"?>
<svg xmlns="http://www.w3.org/2000/svg" xmlns:xlink="http://www.w3.org/1999/xlink" viewBox="0 0 24 24" width="24px" height="24px">
<g id="surface31598673">
<path style=" stroke:none;fill-rule:nonzero;fill:rgb(100%,100%,100%);fill-opacity:1;" d="M 10.898438 2.101562 C 6.300781 2.601562 2.601562 6.300781 2.101562 10.800781 C 1.601562 15.5 4.300781 19.699219 8.398438 21.300781 C 8.699219 21.398438 9 21.199219 9 20.800781 L 9 19.199219 C 9 19.199219 8.601562 19.300781 8.101562 19.300781 C 6.699219 19.300781 6.101562 18.101562 6 17.398438 C 5.898438 17 5.699219 16.699219 5.398438 16.398438 C 5.101562 16.300781 5 16.300781 5 16.199219 C 5 16 5.300781 16 5.398438 16 C 6 16 6.5 16.699219 6.699219 17 C 7.199219 17.800781 7.800781 18 8.101562 18 C 8.5 18 8.800781 17.898438 9 17.800781 C 9.101562 17.101562 9.398438 16.398438 10 16 C 7.699219 15.5 6 14.199219 6 12 C 6 10.898438 6.5 9.800781 7.199219 9 C 7.101562 8.800781 7 8.300781 7 7.601562 C 7 7.199219 7 6.699219 7.199219 6.300781 C 7.199219 6.101562 7.398438 6 7.5 6 L 7.601562 6 C 8.101562 6.101562 9.101562 6.398438 10 7.300781 C 10.601562 7.101562 11.300781 7 12 7 C 12.699219 7 13.398438 7.101562 14 7.300781 C 14.898438 6.398438 16 6.101562 16.5 6 L 16.601562 6 C 16.800781 6 16.898438 6.101562 17 6.300781 C 17 6.699219 17 7.199219 17 7.601562 C 17 8.398438 16.898438 8.800781 16.800781 9 C 17.5 9.800781 18 10.800781 18 12 C 18 14.199219 16.300781 15.5 14 16 C 14.601562 16.5 15 17.398438 15 18.300781 L 15 20.898438 C 15 21.199219 15.300781 21.5 15.699219 21.398438 C 19.398438 19.898438 22 16.300781 22 12.101562 C 22 6.101562 16.898438 1.398438 10.898438 2.101562 Z M 10.898438 2.101562 "/>
</g>
</svg>

<?xml version="1.0"?><svg fill="#000000" xmlns="http://www.w3.org/2000/svg"  viewBox="0 0 24 24" width="24px" height="24px">    <path d="M10.9,2.1c-4.6,0.5-8.3,4.2-8.8,8.7c-0.5,4.7,2.2,8.9,6.3,10.5C8.7,21.4,9,21.2,9,20.8v-1.6c0,0-0.4,0.1-0.9,0.1 c-1.4,0-2-1.2-2.1-1.9c-0.1-0.4-0.3-0.7-0.6-1C5.1,16.3,5,16.3,5,16.2C5,16,5.3,16,5.4,16c0.6,0,1.1,0.7,1.3,1c0.5,0.8,1.1,1,1.4,1 c0.4,0,0.7-0.1,0.9-0.2c0.1-0.7,0.4-1.4,1-1.8c-2.3-0.5-4-1.8-4-4c0-1.1,0.5-2.2,1.2-3C7.1,8.8,7,8.3,7,7.6c0-0.4,0-0.9,0.2-1.3 C7.2,6.1,7.4,6,7.5,6c0,0,0.1,0,0.1,0C8.1,6.1,9.1,6.4,10,7.3C10.6,7.1,11.3,7,12,7s1.4,0.1,2,0.3c0.9-0.9,2-1.2,2.5-1.3 c0,0,0.1,0,0.1,0c0.2,0,0.3,0.1,0.4,0.3C17,6.7,17,7.2,17,7.6c0,0.8-0.1,1.2-0.2,1.4c0.7,0.8,1.2,1.8,1.2,3c0,2.2-1.7,3.5-4,4 c0.6,0.5,1,1.4,1,2.3v2.6c0,0.3,0.3,0.6,0.7,0.5c3.7-1.5,6.3-5.1,6.3-9.3C22,6.1,16.9,1.4,10.9,2.1z"/></svg>
